X: 281
T: Fanny Power
R: jig
M: 3/4
K:G
D2 |G4 D2 | G3 A B2 | c4 B2 | A4 G2 | G3F E2 | D2 F2 D2 | F4 G2 | A2 B2 c2 |
B3A G2 | B2 c2 d2 | e4 A2 | A4 G2 | G3 F E2 | D2 G2 F2 | G6 | G4 :|
d2 |d2 Bc d2 | d2 Bc d2 | G3 B G2 | G2 B2 d2 | e2 cd e2 | e2 cd e2 | A3 c A2 | A2 B2 c2 |
B3 c d2 | e2 f2 g2 | f2 g2 a2 | d4 c2 | B3 A G2 | A2 c2 F2 | G6 | G4 :|

